X:1
T:Little Ball of Yarn
M:2/4
L:1/8
K:A
 E2|C-A, CE| A2B-c| BA GA| B,2-C-D| E2 GF| E2 B,=C| ^C4| z2 E2| CA, CE|\
 A2- Bc| BA GA| B,2G-F| EE GF| E/2 E3/2 DB,| A,2|
